src/assets/svg/icons/fa/nuevos/classic/light/transporter-7 classic light.svg

<svg xmlns="http://www.w3.org/2000/svg" viewBox="0 0 512 512"><!--! Font Awesome Pro 6.4.0 by @fontawesome - https://fontawesome.com License - https://fontawesome.com/license (Commercial License) Copyright 2023 Fonticons, Inc. --><path d="M480 48c0-8.8-7.2-16-16-16s-16 7.2-16 16V64H432c-8.8 0-16 7.2-16 16s7.2 16 16 16h16v16c0 8.8 7.2 16 16 16s16-7.2 16-16V96h16c8.8 0 16-7.2 16-16s-7.2-16-16-16H480V48zM64 272c0-8.8-7.2-16-16-16s-16 7.2-16 16v16H16c-8.8 0-16 7.2-16 16s7.2 16 16 16H32v16c0 8.8 7.2 16 16 16s16-7.2 16-16V320H80c8.8 0 16-7.2 16-16s-7.2-16-16-16H64V272zm64 224c0-8.8 7.2-16 16-16H368c8.8 0 16 7.2 16 16s7.2 16 16 16s16-7.2 16-16c0-26.5-21.5-48-48-48H144c-26.5 0-48 21.5-48 48c0 8.8 7.2 16 16 16s16-7.2 16-16z"/></svg>

<svg xmlns="http://www.w3.org/2000/svg" viewBox="0 0 512 512"><path d="M80 288H64V272C64 263.2 56.84 256 48 256S32 263.2 32 272V288H16C7.156 288 0 295.2 0 304S7.156 320 16 320H32v16C32 344.8 39.16 352 48 352S64 344.8 64 336V320h16C88.84 320 96 312.8 96 304S88.84 288 80 288zM368 448h-224C117.5 448 96 469.5 96 496C96 504.8 103.2 512 112 512S128 504.8 128 496C128 487.2 135.2 480 144 480h224c8.828 0 16 7.172 16 16c0 8.844 7.156 16 16 16s16-7.156 16-16C416 469.5 394.5 448 368 448zM496 64H480V48C480 39.16 472.8 32 464 32S448 39.16 448 48V64h-16C423.2 64 416 71.16 416 80S423.2 96 432 96H448v16C448 120.8 455.2 128 464 128S480 120.8 480 112V96h16C504.8 96 512 88.84 512 80S504.8 64 496 64z"/></svg>
